azure-patterns/svg-bargraph-with-dollar-sign.svg

<svg xmlns="http://www.w3.org/2000/svg" viewBox="0 0 43 48">
                                
                            
  <path d="M42 37.5H37.5V48H42V37.5Z" fill="#0078D4"></path>
  <path d="M34.5 30H30V48H34.5V30Z" fill="#0078D4"></path>
  <path d="M27 22.5H22.5V48H27V22.5Z" fill="#0078D4"></path>
  <path d="M19.5 15H15V48H19.5V15Z" fill="#0078D4"></path>
  <path d="M12 7.5H7.5V48H12V7.5Z" fill="#0078D4"></path>
  <path d="M4.5 0H0V48H4.5V0Z" fill="#0078D4"></path>
  <path d="M42 15.4462C42.026 16.057 41.924 16.6664 41.7005 17.2353C41.4771 17.8043 41.1371 18.3202 40.7025 18.75C39.84 19.585 38.58 20.0988 36.9225 20.2913V23.25H35.1112V20.3738C33.4799 20.38 31.871 19.9942 30.42 19.2488V15.7913C31.0702 16.2609 31.7937 16.6195 32.5612 16.8525C33.3817 17.1603 34.239 17.3595 35.1112 17.445V12.9225C33.2812 12.2475 31.9875 11.5013 31.2262 10.695C30.4473 9.82291 30.0431 8.67913 30.1012 7.51125C30.0893 6.8888 30.2076 6.27073 30.4485 5.69665C30.6894 5.12257 31.0475 4.60514 31.5 4.1775C32.4908 3.24879 33.7715 2.68991 35.1262 2.595V0H36.9375V2.54625C38.6875 2.62875 39.9912 2.91 40.8487 3.39V6.75C39.655 6.03913 38.3199 5.59878 36.9375 5.46V10.155C38.7675 10.82 40.0712 11.57 40.8487 12.405C41.6174 13.228 42.031 14.3206 42 15.4462V15.4462ZM35.1112 9.44625V5.50125C33.9612 5.70875 33.3862 6.30875 33.3862 7.30125C33.375 8.17125 33.96 8.88 35.1112 9.435V9.44625ZM38.7 15.63C38.7 14.8275 38.1075 14.165 36.9225 13.6425V17.3925C38.1075 17.205 38.7 16.6138 38.7 15.6188V15.63Z" fill="#50E6FF"></path>
</svg>

<svg xmlns="http://www.w3.org/2000/svg" viewBox="0 0 43 48"><path d="M42 37.5h-4.5V48H42V37.5zM34.5 30H30v18h4.5V30zM27 22.5h-4.5V48H27V22.5zM19.5 15H15v33h4.5V15zM12 7.5H7.5V48H12V7.5zM4.5 0H0v48h4.5V0z" fill="#0078D4"/><path d="M42 15.446a4.383 4.383 0 0 1-1.297 3.304c-.863.835-2.123 1.349-3.78 1.541v2.959H35.11v-2.876c-1.631.006-3.24-.38-4.691-1.125V15.79c.65.47 1.374.828 2.141 1.061.82.308 1.678.508 2.55.593v-4.523c-1.83-.675-3.123-1.42-3.885-2.227a4.448 4.448 0 0 1-1.125-3.184A4.469 4.469 0 0 1 31.5 4.178a5.906 5.906 0 0 1 3.626-1.583V0h1.812v2.546c1.75.083 3.053.364 3.91.844v3.36a9.498 9.498 0 0 0-3.91-1.29v4.695c1.83.665 3.133 1.415 3.91 2.25A4.283 4.283 0 0 1 42 15.446zm-6.889-6V5.501c-1.15.208-1.725.808-1.725 1.8-.011.87.574 1.579 1.725 2.134v.011zM38.7 15.63c0-.803-.593-1.465-1.778-1.988v3.75c1.186-.187 1.778-.778 1.778-1.773v.011z" fill="#50E6FF"/></svg>
